src/symbolic/emotes/face-cool-symbolic.svg

<svg xmlns="http://www.w3.org/2000/svg" width="16" height="16"><path d="M8 1C5.62 1 3.52 2.19 2.25 4h11.5C12.48 2.19 10.38 1 8 1zm5.97 3.34L14 5.75C14 7.26 13.29 8 11.94 8h-.85C9.74 8 9 7.26 9 5.75V5H7v.75C6.98 7.26 6.2 8 4.84 8H4c-1.36 0-1.99-.74-2-2.25l-.03-1.32A6.995 6.995 0 0 0 1 8c0 3.86 3.13 7 7 7a7.001 7.001 0 0 0 5.97-10.66zm-8.8 5.49a4.004 4.004 0 0 0 5.66 0l.7.7C10.6 11.47 9.33 12 8 12c-1.33 0-2.6-.53-3.53-1.47z" fill="#444"/></svg>

<svg xmlns="http://www.w3.org/2000/svg" width="16" height="16" version="1.1">
 <path style="fill:#444444" d="M 8,1 C 5.62,1 3.52,2.19 2.25,4 H 13.75 C 12.48,2.19 10.38,1 8,1 Z M 13.97,4.34 14,5.75 C 14,7.26 13.29,8 11.94,8 H 11.09 C 9.74,8 9,7.26 9,5.75 V 5 H 7 V 5.75 C 6.98,7.26 6.2,8 4.84,8 H 4 C 2.64,8 2.01,7.26 2,5.75 L 1.97,4.43 C 1.35,5.48 1,6.7 1,8 1,11.86 4.13,15 8,15 11.87,15 15,11.86 15,8 15,6.65 14.62,5.4 13.97,4.34 Z M 5.17,9.83 C 5.92,10.58 6.94,11 8,11 9.06,11 10.08,10.58 10.83,9.83 L 11.53,10.53 C 10.6,11.47 9.33,12 8,12 6.67,12 5.4,11.47 4.47,10.53 Z"/>
</svg>
